src/static/img/info.svg

<?xml version="1.0" encoding="iso-8859-1"?>
<!-- Generator: Adobe Illustrator 18.1.1, SVG Export Plug-In . SVG Version: 6.00 Build 0)  -->
<svg version="1.1" id="Capa_1" xmlns="http://www.w3.org/2000/svg" xmlns:xlink="http://www.w3.org/1999/xlink" x="0px" y="0px"
	 viewBox="0 0 23.625 23.625" style="enable-background:new 0 0 23.625 23.625;" xml:space="preserve">
<g>
	<path style="fill:#ffffff;" d="M11.812,0C5.289,0,0,5.289,0,11.812s5.289,11.813,11.812,11.813s11.813-5.29,11.813-11.813
		S18.335,0,11.812,0z M14.271,18.307c-0.608,0.24-1.092,0.422-1.455,0.548c-0.362,0.126-0.783,0.189-1.262,0.189
		c-0.736,0-1.309-0.18-1.717-0.539s-0.611-0.814-0.611-1.367c0-0.215,0.015-0.435,0.045-0.659c0.031-0.224,0.08-0.476,0.147-0.759
		l0.761-2.688c0.067-0.258,0.125-0.503,0.171-0.731c0.046-0.23,0.068-0.441,0.068-0.633c0-0.342-0.071-0.582-0.212-0.717
		c-0.143-0.135-0.412-0.201-0.813-0.201c-0.196,0-0.398,0.029-0.605,0.09c-0.205,0.063-0.383,0.12-0.529,0.176l0.201-0.828
		c0.498-0.203,0.975-0.377,1.43-0.521c0.455-0.146,0.885-0.218,1.29-0.218c0.731,0,1.295,0.178,1.692,0.53
		c0.395,0.353,0.594,0.812,0.594,1.376c0,0.117-0.014,0.323-0.041,0.617c-0.027,0.295-0.078,0.564-0.152,0.811l-0.757,2.68
		c-0.062,0.215-0.117,0.461-0.167,0.736c-0.049,0.275-0.073,0.485-0.073,0.626c0,0.356,0.079,0.599,0.239,0.728
		c0.158,0.129,0.435,0.194,0.827,0.194c0.185,0,0.392-0.033,0.626-0.097c0.232-0.064,0.4-0.121,0.506-0.17L14.271,18.307z
		 M14.137,7.429c-0.353,0.328-0.778,0.492-1.275,0.492c-0.496,0-0.924-0.164-1.28-0.492c-0.354-0.328-0.533-0.727-0.533-1.193
		c0-0.465,0.18-0.865,0.533-1.196c0.356-0.332,0.784-0.497,1.28-0.497c0.497,0,0.923,0.165,1.275,0.497
		c0.353,0.331,0.53,0.731,0.53,1.196C14.667,6.703,14.49,7.101,14.137,7.429z"/>
</g>
<g>
</g>
<g>
</g>
<g>
</g>
<g>
</g>
<g>
</g>
<g>
</g>
<g>
</g>
<g>
</g>
<g>
</g>
<g>
</g>
<g>
</g>
<g>
</g>
<g>
</g>
<g>
</g>
<g>
</g>
</svg>

<?xml version="1.0" encoding="UTF-8"?>
<svg width="24px" height="24px" viewBox="0 0 24 24" version="1.1" xmlns="http://www.w3.org/2000/svg" xmlns:xlink="http://www.w3.org/1999/xlink">
    <!-- Generator: Sketch 51.3 (57544) - http://www.bohemiancoding.com/sketch -->
    <title>Group</title>
    <desc>Created with Sketch.</desc>
    <defs></defs>
    <g id="Page-1" stroke="none" stroke-width="1" fill="none" fill-rule="evenodd">
        <g id="Group" fill="#FFFFFF">
            <path d="M11.9994921,0 C18.6260317,0 24,5.37295238 24,11.9994921 C24,18.6260317 18.6260317,24 11.9994921,24 C5.37295238,24 0,18.6260317 0,11.9994921 C0,5.37295238 5.37295238,0 11.9994921,0 Z M11.9995767,2 C6.47746032,2 2,6.47746032 2,11.9995767 C2,17.5216931 6.47746032,22 11.9995767,22 C17.5216931,22 22,17.5216931 22,11.9995767 C22,6.47746032 17.5216931,2 11.9995767,2 Z" id="Combined-Shape" fill-rule="nonzero"></path>
            <path d="M14.271,18.307 C13.663,18.547 13.179,18.729 12.816,18.855 C12.454,18.981 12.033,19.044 11.554,19.044 C10.818,19.044 10.245,18.864 9.837,18.505 C9.429,18.146 9.226,17.691 9.226,17.138 C9.226,16.923 9.241,16.703 9.271,16.479 C9.302,16.255 9.351,16.003 9.418,15.72 L10.179,13.032 C10.246,12.774 10.304,12.529 10.35,12.301 C10.396,12.071 10.418,11.86 10.418,11.668 C10.418,11.326 10.347,11.086 10.206,10.951 C10.063,10.816 9.794,10.75 9.393,10.75 C9.197,10.75 8.995,10.779 8.788,10.84 C8.583,10.903 8.405,10.96 8.259,11.016 L8.46,10.188 C8.958,9.985 9.435,9.811 9.89,9.667 C10.345,9.521 10.775,9.449 11.18,9.449 C11.911,9.449 12.475,9.627 12.872,9.979 C13.267,10.332 13.466,10.791 13.466,11.355 C13.466,11.472 13.452,11.678 13.425,11.972 C13.398,12.267 13.347,12.536 13.273,12.783 L12.516,15.463 C12.454,15.678 12.399,15.924 12.349,16.199 C12.3,16.474 12.276,16.684 12.276,16.825 C12.276,17.181 12.355,17.424 12.515,17.553 C12.673,17.682 12.95,17.747 13.342,17.747 C13.527,17.747 13.734,17.714 13.968,17.65 C14.2,17.586 14.368,17.529 14.474,17.48 L14.271,18.307 Z" id="Path"></path>
            <path d="M14.137,7.429 C13.784,7.757 13.359,7.921 12.862,7.921 C12.366,7.921 11.938,7.757 11.582,7.429 C11.228,7.101 11.049,6.702 11.049,6.236 C11.049,5.771 11.229,5.371 11.582,5.04 C11.938,4.708 12.366,4.543 12.862,4.543 C13.359,4.543 13.785,4.708 14.137,5.04 C14.49,5.371 14.667,5.771 14.667,6.236 C14.667,6.703 14.49,7.101 14.137,7.429 Z" id="Path"></path>
        </g>
    </g>
</svg>
